icon/pk/messages.svg

<svg viewBox="0 0 48 48" fill="none" xmlns="http://www.w3.org/2000/svg" height="1em" width="1em">
  <path d="M39 6H9C7.34315 6 6 7.34315 6 9V39C6 40.6569 7.34315 42 9 42H39C40.6569 42 42 40.6569 42 39V9C42 7.34315 40.6569 6 39 6Z" fill="#2F88FF" stroke="black" stroke-width="4"/>
  <path d="M35 23C35 28.5229 30.5229 33 25 33C22.0133 33 15 33 15 33C15 33 15 25.5361 15 23C15 17.4771 19.4771 13 25 13C30.5229 13 35 17.4771 35 23Z" fill="#43CCF8" stroke="white" stroke-width="4" stroke-linecap="round" stroke-linejoin="round"/>
  <path d="M22 21H28" stroke="white" stroke-width="4" stroke-linecap="round" stroke-linejoin="round"/>
  <path d="M22 27H24" stroke="white" stroke-width="4" stroke-linecap="round" stroke-linejoin="round"/>
</svg>

<svg width="48" height="48" fill="none" xmlns="http://www.w3.org/2000/svg"><path d="M39 6H9a3 3 0 0 0-3 3v30a3 3 0 0 0 3 3h30a3 3 0 0 0 3-3V9a3 3 0 0 0-3-3Z" fill="#2F88FF" stroke="#000" stroke-width="4"/><path d="M35 23c0 5.523-4.477 10-10 10H15V23c0-5.523 4.477-10 10-10s10 4.477 10 10Z" fill="#43CCF8" stroke="#fff" stroke-width="4" stroke-linecap="round" stroke-linejoin="round"/><path d="M22 21h6M22 27h2" stroke="#fff" stroke-width="4" stroke-linecap="round" stroke-linejoin="round"/></svg>
